X:1
T:Title
%%score { 1 | 2 }
L:1/8
M:4/4
K:Eb
V:1 treble nm="Grand Piano"
V:2 bass 
V:1
 z4 z2[Q:1/4=100] E>G |[M:3/4] [GB]3 [Ac] [GB]>[EG] | [GB]4 E>F | G4 E2 | F2 E4 |[M:1/4] E>G | %6
[M:3/4] [GB]3 [Ac] [GB]>[EG] | [GB]4 E>F | G4 E2 | F2 E4 |[M:1/4] G>[GB] | %11
[M:3/4] [Ge]3 [GB] [Ac]>[Ac] | [GB]4 G>B | c3 B A>G |[M:2/4] [DF]4 |[M:1/4] [EG]>[GB] | %16
[M:3/4] [Ge]3 [EGB] [EAc]>[EAc] | [EGB]4 [G,B,E]>[B,EG] | [EGB]4 [B,EG]2 | [A,DF]2 [G,E]4 |] %20
V:2
 z4 z2 [E,G,B,]>[E,B,E] |[M:3/4] [E,E]3 [E,E] [E,E]>[E,B,] | [E,E]4 [E,G,]>[E,A,E] | %3
 [E,B,E]4 [E,G,B,]2 | [B,,A,B,]2 [E,G,B,]4 |[M:1/4] [E,G,B,]>[E,B,E] | %6
[M:3/4] [E,E]3 [E,E] [E,E]>[E,B,] | [E,E]4 [E,G,]>[E,A,E] | [E,B,E]4 [E,G,B,]2 | %9
 [B,,A,B,]2 [E,G,B,]4 |[M:1/4] [E,B,E]>[E,B,] |[M:3/4] [E,B,]3 [E,E] [A,E]>[A,E] | %12
 [E,E]4 [E,B,E]>[G,B,E] | [A,E]3 [G,B,E] [F,B,D]>[E,B,E] |[M:2/4] [B,,B,]4 |[M:1/4] [E,B,]>[E,B,] | %16
[M:3/4] [E,B,]3 E, A,>A, | E,4 E,>E, | E,4 E,2 | B,,2 E,4 |] %20

